sass/icons/active-symbols/volatility/bear market/ic-marketbear.svg

<svg width="32" height="32" viewBox="0 0 32 32" fill="none" xmlns="http://www.w3.org/2000/svg">
<circle cx="24" cy="8" r="8" fill="#0E0E0E"/>
<path d="M28.1013 4.08209C29.4242 4.4747 29.3184 6.49385 27.5721 6.99864H27.5191L27.8896 8.12039L28.4717 9.91519C27.9954 11.3735 26.1432 11.8222 26.1432 11.8222L25.7199 12.5513C25.5611 12.8317 25.2965 13 24.979 13H24.0265H23.0739C22.7564 13 22.4918 12.8317 22.333 12.6074L21.9097 11.8783C21.9097 11.8783 20.0575 11.3735 19.5812 9.97128L20.1633 8.17648L20.5338 7.05473L20.4279 6.99864C18.6816 6.49385 18.5758 4.4747 19.8987 4.08209C20.9571 3.74556 21.2747 4.53079 21.3805 4.86731L22.333 4.58688C22.8622 4.41861 23.4443 4.36253 24.0265 4.36253C24.6086 4.36253 25.1907 4.41861 25.7199 4.58688L26.6195 4.86731C26.6724 4.53079 27.0429 3.74556 28.1013 4.08209Z" fill="white"/>
<path d="M32 32H24V30H28.5857L19 20.4142L14 25.4142L0 11.4143V8.58583L14 22.5858L19 17.5858L30 28.5858V24H32V32Z" fill="#FF444F"/>
</svg>

<svg width="32" height="32" fill="none" xmlns="http://www.w3.org/2000/svg"><circle cx="24" cy="8" r="8" fill="#0E0E0E"/><path d="M28.101 4.082c1.323.393 1.217 2.412-.529 2.917h-.053l.37 1.121.583 1.795c-.477 1.459-2.329 1.907-2.329 1.907l-.423.73a.837.837 0 01-.741.448H23.074a.91.91 0 01-.741-.393l-.423-.729s-1.852-.505-2.329-1.907l.582-1.795.37-1.121-.105-.056c-1.746-.505-1.852-2.524-.53-2.917 1.06-.336 1.377.449 1.483.785l.952-.28c.53-.168 1.111-.224 1.694-.224.582 0 1.164.056 1.693.224l.9.28c.052-.336.423-1.121 1.481-.785z" fill="#fff"/><path d="M32 32h-8v-2h4.586L19 20.414l-5 5-14-14V8.586l14 14 5-5 11 11V24h2v8z" fill="#FF444F"/></svg>
